remix/Weather/rainy-line.svg

<svg viewBox="0 0 24 24" fill="currentColor" xmlns="http://www.w3.org/2000/svg"><path d="M16 18V16H17C19.2091 16 21 14.2091 21 12C21 9.79086 19.2091 8 17 8C16.2057 8 15.4654 8.23153 14.8431 8.63079C14.2236 5.97685 11.8427 4 9 4C5.68629 4 3 6.68629 3 10C3 12.973 5.16229 15.441 8 15.917V17.9381C4.05369 17.446 1 14.0796 1 10C1 5.58172 4.58172 2 9 2C11.9967 2 14.6086 3.64768 15.9791 6.08651C16.3109 6.02963 16.652 6 17 6C20.3137 6 23 8.68629 23 12C23 15.3137 20.3137 18 17 18H16ZM10.2322 18.7322L12 16.9645L13.7678 18.7322C14.7441 19.7085 14.7441 21.2915 13.7678 22.2678C12.7915 23.2441 11.2085 23.2441 10.2322 22.2678C9.25592 21.2915 9.25592 19.7085 10.2322 18.7322Z"/></svg>

<svg viewBox="0 0 24 24" xmlns="http://www.w3.org/2000/svg"><path fill="none" d="M0 0h24v24H0Z"/><path d="M16 18v-2h1v0c2.2-.01 3.99-1.8 3.99-4.01 -.01-2.21-1.8-4-4.01-4 -.77 0-1.51.21-2.16.62v0c-.76-3.23-3.99-5.23-7.22-4.47 -3.23.75-5.23 3.98-4.47 7.21 .55 2.35 2.45 4.14 4.83 4.54v2.02h0c-4.39-.56-7.49-4.56-6.94-8.95 .5-4 3.9-7 7.93-7V1.95c2.89-.01 5.56 1.56 6.98 4.08v0c3.26-.57 6.36 1.62 6.93 4.89 .56 3.26-1.63 6.36-4.9 6.93 -.34.05-.68.08-1.02.08h-1Zm-5.77.73l1.76-1.77 1.76 1.76v0c.97.97.97 2.55-.01 3.53 -.98.97-2.56.97-3.54-.01s-.98-2.56-.001-3.54Z"/></svg>
